X: 38947
T: Sussex, The
R: mazurka
M: 3/4
K: Gmajor
|:D/|G>A B2 B>d|c>B A2 A>G|F>A c>A e>d|B>d g2- g>D|
G>A B2 B>d|c>B A2- A>G|F>G A>D E>F|F2 G2- G3/2:|
|:D/|B>c d2 d2|(3Bc^c d2 d2|(3efe d>e g>f|e>d d4|
B>c d2 e>d|c>B A2- A>G|F>G A>D E>F|F2 G2- G3/2:|

